X: 118
T:O'Connell's Farewell to Dublin
M:4/4
L:1/8
S:John Skelton: One At a Time
R:Reel
D:John Skelton: One at A Time (PAN 146CD)
H:Setting adopted from CRE#2
Z:Chris Corrigan
K:ADor
|:AcBG A2 (3Bcd|eaaf ge d2|G2 GF GEDE|G2 (3BAG AGEG|
AcBG A2 (3Bcd|eaaf gedB|(3ABd af gfed|gedB A3 B:|
|:c2 cB cdef|g2 gf ge d2|dBGB d2 de|dBGB d2 dB|
c2 cB cdef|g2 gf gfed|(3ABd af gfed|gedB A3 B:|
|:eaag a3 b|c'2 ba agef|gbaf gfed|(3gab af gfed|
eaag a3 b|c'2 ba aged|(3ABd af gfed|gedB A3 B:|
|:ceAB ceAc|B2 GB dB G2|ceAB ce A2|(3Bcd af gfed|
ceAB ceAc|B2 GB dB G2|(3ABd af gfed|gedB A3 B:|
<end>
<start>
